svgs/sharp-light/file-gif.svg

<svg xmlns="http://www.w3.org/2000/svg" viewBox="0 0 512 512"><!--! Font Awesome Pro 6.5.2 by @fontawesome - https://fontawesome.com License - https://fontawesome.com/license (Commercial License) Copyright 2024 Fonticons, Inc. --><path d="M352 192v96h32V152L232 0H32 0V32 480v32H32 160V480H32V32H192V176v16h16H352zm-5.3-32H224V37.3L346.7 160zM224 392v80c0 22.1 17.9 40 40 40h16c22.1 0 40-17.9 40-40V448 432H304 288 272v32h16v8c0 4.4-3.6 8-8 8H264c-4.4 0-8-3.6-8-8V392c0-4.4 3.6-8 8-8h16c4.4 0 8 3.6 8 8v16h32V392c0-22.1-17.9-40-40-40H264c-22.1 0-40 17.9-40 40zm160-24V352H352v16V496v16h32V496 368zm48-16H416v16 64 64 16h32V496 448h32 16V416H480 448V384h32 16V352H480 432z"/></svg>

<svg xmlns="http://www.w3.org/2000/svg" viewBox="0 0 512 512"><!--! Font Awesome Pro 6.6.0 by @fontawesome - https://fontawesome.com License - https://fontawesome.com/license (Commercial License) Copyright 2024 Fonticons, Inc. --><path d="M352 192l0 112 32 0 0-152L232 0 32 0 0 0 0 32 0 480l0 32 32 0 144 0 0-32L32 480 32 32l160 0 0 144 0 16 16 0 144 0zm-5.3-32L224 160l0-122.7L346.7 160zM224 392l0 80c0 22.1 17.9 40 40 40l16 0c22.1 0 40-17.9 40-40l0-24 0-16-16 0-16 0-16 0 0 32 16 0 0 8c0 4.4-3.6 8-8 8l-16 0c-4.4 0-8-3.6-8-8l0-80c0-4.4 3.6-8 8-8l16 0c4.4 0 8 3.6 8 8l0 16 32 0 0-16c0-22.1-17.9-40-40-40l-16 0c-22.1 0-40 17.9-40 40zm160-24l0-16-32 0 0 16 0 128 0 16 32 0 0-16 0-128zm48-16l-16 0 0 16 0 64 0 64 0 16 32 0 0-16 0-48 32 0 16 0 0-32-16 0-32 0 0-32 32 0 16 0 0-32-16 0-48 0z"/></svg>
